X:1
T:Shamrock Shore
M:3/4
L:1/4
F:http://sniff.numachi.com/~rickheit/dtrad/abc/PADDYGR2.1.abc	 2002-06-05 21:17:13 UT
K:C
 C| D2 E| G2 E| D- E G| c2 d| A2 E| G- E D| C2 C| D2 E| G2 E| D- E G|\
 c2 d| A2 E| G- E D| D2 G| A2 d| d- c d| e2 d| c- A G| c2 A| G- E D|\
 C2 C| D2 E| G2 E| D- E G| c2 d| A2 E| G- E D| D2||


